src/icons/fax.svg

<?xml version="1.0" encoding="UTF-8"?>
<svg width="18px" height="16px" viewBox="0 0 18 16" version="1.1" xmlns="http://www.w3.org/2000/svg" xmlns:xlink="http://www.w3.org/1999/xlink">
    <path d="M17.2652941,2.71214604 C16.5305882,2.71214604 15.7959118,2.71214604 15.0612059,2.71214604 C15.0612059,2.05310487 15.0612059,1.39409302 15.0612059,0.735051848 C15.0612059,0.33063356 14.7322941,0.00278388278 14.3265,0.00278388278 C10.7754706,0.00278388278 7.22447059,0.00278388278 3.67344118,0.00278388278 C3.26767647,0.00278388278 2.93873529,0.330604245 2.93873529,0.735051848 C2.93873529,1.39409302 2.93873529,2.05310487 2.93873529,2.71214604 C2.20402941,2.71214604 1.46935294,2.71214604 0.734647059,2.71214604 C0.328911765,2.71214604 0,3.03999571 0,3.444414 C0,5.83645027 0,8.22848655 0,10.6205228 C0,11.0249411 0.328911765,11.3527908 0.734705882,11.3527908 C1.46941176,11.3527908 2.20408824,11.3527908 2.93879412,11.3527908 C2.93879412,12.2174415 2.93879412,13.0820923 2.93879412,13.9467723 C2.93879412,14.368486 2.93879412,14.7901703 2.93879412,15.211884 C2.93879412,15.4560124 2.98832353,15.6381413 3.17764706,15.8107138 C3.26582353,15.8910933 3.35997059,15.9432139 3.47497059,15.9754009 C3.58147059,16.0051547 3.68673529,16.0027366 3.79438235,16.0027366 C5.52958824,16.0027366 7.26479412,16.0027366 8.99997059,16.0027366 C10.7351471,16.0027366 12.4703824,16.0027366 14.2055588,16.0027366 C14.3132647,16.0027366 14.4186176,16.0051547 14.5251765,15.9753716 C14.6402647,15.9431552 14.7345,15.8909174 14.8226471,15.8104207 C15.012,15.6376137 15.0611765,15.4551916 15.0611765,15.2110339 C15.0611765,14.789115 15.0611765,14.3671376 15.0611765,13.9452187 C15.0611765,13.0810956 15.0611765,12.2169431 15.0611765,11.3528201 C15.7958824,11.3528201 16.5305588,11.3528201 17.2652647,11.3528201 C17.6710294,11.3528201 17.9999706,11.0249997 17.9999706,10.6205521 C17.9999706,8.22851586 17.9999706,5.83647959 17.9999706,3.44444332 C17.9999706,3.04002503 17.6710882,2.71214604 17.2652941,2.71214604 Z M1.83673529,5.29334664 C1.48170588,5.29334664 1.19388235,5.00647818 1.19388235,4.65262684 C1.19388235,4.29877549 1.48170588,4.01190703 1.83673529,4.01190703 C2.19176471,4.01190703 2.47958824,4.29877549 2.47958824,4.65262684 C2.47958824,5.00647818 2.19176471,5.29334664 1.83673529,5.29334664 Z M14.3265294,15.2703364 L3.67347059,15.2703364 L3.67347059,9.48553678 L14.3265294,9.48553678 L14.3265294,15.2703364 Z M14.3265588,2.71214604 C10.7755,2.71214604 7.2245,2.71214604 3.67347059,2.71214604 C3.67347059,2.29720397 3.67347059,1.88223258 3.67347059,1.46731982 C3.67347059,1.06290153 4.00238235,0.735051848 4.40817647,0.735051848 C7.46938235,0.735051848 10.5306471,0.735051848 13.5918529,0.735051848 C13.9976176,0.735051848 14.3265588,1.06287221 14.3265588,1.46731982 C14.3265588,1.88229121 14.3265588,2.29723328 14.3265588,2.71214604 Z"></path>
</svg>

<svg viewBox="0 0 18 16" xmlns="http://www.w3.org/2000/svg">
    <path d="M17.265 2.712h-2.204V.735a.733.733 0 00-.735-.732H3.673a.733.733 0 00-.734.732v1.977H.735A.733.733 0 000 3.444v7.177c0 .404.329.732.735.732h2.204v3.859c0 .244.05.426.239.599.088.08.182.132.297.164.106.03.212.028.32.028h10.41c.107 0 .213.002.32-.028a.708.708 0 00.297-.165c.189-.172.238-.355.238-.599v-3.858h2.204A.733.733 0 0018 10.62V3.444a.733.733 0 00-.735-.732zM1.837 5.293a.642.642 0 11-.002-1.283.642.642 0 01.002 1.283zm12.49 9.977H3.673V9.486h10.654v5.784zm0-12.558H3.673V1.467c0-.404.33-.732.735-.732h9.184c.406 0 .735.328.735.732v1.245z"/>
</svg>
